logo/rider.svg

<?xml version="1.0" encoding="UTF-8"?>
<svg width="256px" height="256px" viewBox="0 0 256 256" version="1.1" xmlns="http://www.w3.org/2000/svg" preserveAspectRatio="xMidYMid">
    <title>Rider</title>
    <defs>
        <linearGradient x1="90.8320951%" y1="81.8025397%" x2="-19.1233284%" y2="19.0400096%" id="riderLinearGradient-1">
            <stop stop-color="#DD1265" offset="0%"></stop>
            <stop stop-color="#DD1265" offset="48%"></stop>
            <stop stop-color="#FDB60D" offset="94%"></stop>
        </linearGradient>
        <linearGradient x1="35.983477%" y1="7.27061065%" x2="53.6996856%" y2="92.9939676%" id="riderLinearGradient-2">
            <stop stop-color="#087CFA" offset="14%"></stop>
            <stop stop-color="#DD1265" offset="48%"></stop>
            <stop stop-color="#087CFA" offset="96%"></stop>
        </linearGradient>
        <linearGradient x1="39.5446571%" y1="11.3522538%" x2="56.9381078%" y2="91.6944908%" id="riderLinearGradient-3">
            <stop stop-color="#DD1265" offset="28%"></stop>
            <stop stop-color="#FDB60D" offset="97%"></stop>
        </linearGradient>
    </defs>
    <g>
        <polygon fill="url(#riderLinearGradient-1)" points="256 99.6 76.5333333 0 196.693333 178.533333 221.386667 162.346667"></polygon>
        <polygon fill="url(#riderLinearGradient-2)" points="184.4 58.9866667 161.92 4.02666667 112.186667 52.9866667 132.533333 230.64 180.72 256 256 212.026667"></polygon>
        <polygon fill="url(#riderLinearGradient-3)" points="76.5333333 3.78956126e-14 0 51.5466667 28.4533333 227.36 101.84 255.573333 196.693333 178.533333"></polygon>
        <polygon fill="#000000" points="48 48.32 208 48.32 208 208.32 48 208.32"></polygon>
        <path d="M67.9466667,178.08 L127.946667,178.08 L127.946667,188.08 L67.9466667,188.08 L67.9466667,178.08 Z M68,68.1066667 L95.4666667,68.1066667 C101.889161,67.7112671 108.201434,69.9114353 112.986667,74.2133333 C116.314389,77.7180212 118.164351,82.3571511 118.17527,87.1697858 L118.16,88.1333333 C118.56833,96.5566756 113.278237,104.207636 105.253333,106.8 L119.973333,128.293333 L104.48,128.293333 L91.6,109.04 L81.3333333,109.04 L81.3333333,128.293333 L68,128.293333 L68,68.1066667 Z M94.6666667,97.44 C100.904889,97.44 104.576504,94.2255111 104.814347,89.4345106 L104.826667,88.7733333 C104.826667,83.0933333 100.88,80.16 94.4266667,80.16 L81.3333333,80.16 L81.3333333,97.44 L94.6666667,97.44 Z M129.146667,68.1066667 L152.613333,68.1066667 C171.229128,68.1066667 184.209086,80.6968174 184.604063,97.2479635 L184.613333,98.2133333 C184.613333,115.146667 171.546667,128.293333 152.613333,128.293333 L129.146667,128.293333 L129.146667,68.1066667 Z M142.48,80.0533333 L142.48,116.32 L152.72,116.32 C157.583237,116.606408 162.338724,114.810611 165.798741,111.381124 C169.076652,108.132135 170.898676,103.707505 170.87452,99.1136955 L170.853333,98.1866667 C171.100297,93.3034998 169.2702,88.5437148 165.815407,85.0838419 C162.360615,81.6239691 157.603525,79.7868792 152.72,80.0266667 L142.48,80.0533333 Z" fill="#FFFFFF"></path>
    </g>
</svg>

<svg viewBox="0 0 256 256" xmlns="http://www.w3.org/2000/svg"><defs><linearGradient id="a" x1="90.832%" x2="-19.124%" y1="81.802%" y2="19.04%"><stop offset="0%" stop-color="#DD1265"/><stop offset="48%" stop-color="#DD1265"/><stop offset="94%" stop-color="#FDB60D"/></linearGradient><linearGradient id="b" x1="35.983%" x2="53.699%" y1="7.27%" y2="92.993%"><stop offset="14%" stop-color="#087CFA"/><stop offset="48%" stop-color="#DD1265"/><stop offset="96%" stop-color="#087CFA"/></linearGradient><linearGradient id="c" x1="39.544%" x2="56.938%" y1="11.352%" y2="91.694%"><stop offset="28%" stop-color="#DD1265"/><stop offset="97%" stop-color="#FDB60D"/></linearGradient></defs><path fill="url(#a)" d="M256 99.6L76.53 0l120.16 178.53 24.69-16.19Z"/><path fill="url(#b)" d="M184.4 58.98L161.92 4.02l-49.74 48.96 20.34 177.65 48.18 25.36 75.28-43.98Z"/><path fill="url(#c)" d="M76.53 0L-.01 51.54l28.45 175.81 73.38 28.21 94.85-77.04Z"/><path d="M48 48.32l160 0 0 160 -160 0Z"/><path fill="#FFF" d="M67.94 178.08h60v10h-60v-10Zm.05-109.98h27.46c6.42-.4 12.73 1.8 17.52 6.1 3.32 3.5 5.17 8.14 5.18 12.95l-.02.96c.4 8.42-4.89 16.07-12.91 18.66l14.72 21.49h-15.5L91.56 109H81.29v19.25H67.95V68.06Zm26.66 29.33c6.23 0 9.9-3.22 10.14-8.01l.01-.67c0-5.68-3.95-8.62-10.4-8.62H81.3v17.28h13.33Zm34.48-29.34h23.46c18.61 0 31.59 12.59 31.99 29.14l0 .96c0 16.93-13.07 30.08-32 30.08h-23.47V68.08Zm13.33 11.94v36.26h10.24c4.86.28 9.61-1.51 13.07-4.94 3.27-3.25 5.09-7.68 5.07-12.27l-.03-.93c.24-4.89-1.59-9.65-5.04-13.11 -3.46-3.46-8.22-5.3-13.1-5.06l-10.24.02Z"/></svg>
